packages/katcn/src/icons/svg/paint.svg

<svg width="24" height="25" viewBox="0 0 24 25" fill="none" xmlns="http://www.w3.org/2000/svg">
<g clip-path="url(#clip0_178_345)">
<path d="M22.9 13.268C22.7 12.868 22.4 12.668 22 12.668H3.2C3.3 12.368 3.5 12.168 3.7 11.868L11.2 4.36802L17.9 11.068C18.3 11.468 18.9 11.468 19.3 11.068C19.7 10.668 19.7 10.068 19.3 9.66802L12 2.26802C11.6 1.86802 11 1.86802 10.6 2.26802L2.3 10.468C1.5 11.368 1 12.468 1 13.668C1 13.668 1 13.668 1 13.768C1 13.868 1 13.768 1 13.868C1 15.068 1.5 16.168 2.3 16.968L8.1 22.768C9 23.668 10.1 24.068 11.3 24.068C12.5 24.068 13.6 23.668 14.5 22.768L22.7 14.468C23 14.068 23.1 13.668 22.9 13.268ZM13 21.268C12 22.268 10.4 22.268 9.5 21.268L3.7 15.468C3.5 15.268 3.3 14.968 3.2 14.668H19.6L13 21.268Z" fill="black"/>
</g>
<defs>
<clipPath id="clip0_178_345">
<rect width="24" height="24" fill="white" transform="translate(0 0.968018)"/>
</clipPath>
</defs>
</svg>

<svg xmlns="http://www.w3.org/2000/svg" fill="none" viewBox="0 0 24 25"><g clip-path="url(#a)"><path fill="#000" d="M22.9 13.268q-.3-.6-.9-.6H3.2c.1-.3.3-.5.5-.8l7.5-7.5 6.7 6.7c.4.4 1 .4 1.4 0s.4-1 0-1.4l-7.3-7.4c-.4-.4-1-.4-1.4 0l-8.3 8.2c-.8.9-1.3 2-1.3 3.2v.2c0 1.2.5 2.3 1.3 3.1l5.8 5.8c.9.9 2 1.3 3.2 1.3s2.3-.4 3.2-1.3l8.2-8.3c.3-.4.4-.8.2-1.2m-9.9 8c-1 1-2.6 1-3.5 0l-5.8-5.8c-.2-.2-.4-.5-.5-.8h16.4z"/></g><defs><clipPath id="a"><path fill="#fff" d="M0 .968h24v24H0z"/></clipPath></defs></svg>
